icons/lines/user-tag.svg

<svg xmlns="http://www.w3.org/2000/svg" width="24" height="24" viewBox="0 0 24 24" fill="none" stroke="currentColor" stroke-width="2" stroke-linecap="round" stroke-linejoin="round" >
  <path d="M18 18.86H17.24C16.44 18.86 15.68 19.17 15.12 19.73L13.41 21.42C12.63 22.19 11.36 22.19 10.58 21.42L8.87 19.73C8.31 19.17 7.54 18.86 6.75 18.86H6C4.34 18.86 3 17.53 3 15.89V4.97998C3 3.33998 4.34 2.01001 6 2.01001H18C19.66 2.01001 21 3.33998 21 4.97998V15.89C21 17.52 19.66 18.86 18 18.86Z" stroke-miterlimit="10"/>
  <path d="M11.9999 10.0001C13.2868 10.0001 14.33 8.95687 14.33 7.67004C14.33 6.38322 13.2868 5.34009 11.9999 5.34009C10.7131 5.34009 9.66992 6.38322 9.66992 7.67004C9.66992 8.95687 10.7131 10.0001 11.9999 10.0001Z"/>
  <path d="M16 15.6601C16 13.8601 14.21 12.4001 12 12.4001C9.79 12.4001 8 13.8601 8 15.6601"/>
  </svg>

<svg xmlns="http://www.w3.org/2000/svg" width="24" height="24" viewBox="0 0 24 24" fill="none" stroke="currentColor" stroke-width="2" stroke-linecap="round" stroke-linejoin="round">
  <path d="M16 15.66c0-1.8-1.79-3.26-4-3.26s-4 1.46-4 3.26" />
  <path d="M17.24 18.86a3 3 0 0 0-2.12.87l-1.71 1.69a2 2 0 0 1-2.83 0l-1.71-1.69a3 3 0 0 0-2.12-.87H6a3 3 0 0 1-3-2.97V4.98a3 3 0 0 1 3-2.97h12a3 3 0 0 1 3 2.97v10.91a3 3 0 0 1-3 2.97z" />
  <circle cx="12" cy="7.67" r="2.33" />
</svg>
